source/img/icon-instagram.svg

<svg width="14" height="14" viewBox="0 0 14 14" fill="none" xmlns="http://www.w3.org/2000/svg">
<path d="M10.1364 0H3.86341C1.73313 0 0 1.73321 0 3.86349V10.1365C0 12.2669 1.73313 14 3.86341 14H10.1364C12.2669 14 14 12.2668 14 10.1365V3.86349C14.0001 1.73321 12.2669 0 10.1364 0ZM12.7579 10.1365C12.7579 11.582 11.582 12.7579 10.1365 12.7579H3.86341C2.41805 12.7579 1.24215 11.582 1.24215 10.1365V3.86349C1.24215 2.41813 2.41805 1.24215 3.86341 1.24215H10.1364C11.5819 1.24215 12.7579 2.41813 12.7579 3.86349V10.1365H12.7579Z" fill="#57AB27"/>
<path d="M3.60745 1.01086e-07C1.61827 1.01086e-07 -1.23831e-07 1.61827 -1.23831e-07 3.60745C-1.23831e-07 5.59654 1.61827 7.21473 3.60745 7.21473C5.59662 7.21473 7.21489 5.59654 7.21489 3.60745C7.21489 1.61827 5.59662 1.01086e-07 3.60745 1.01086e-07ZM3.60745 5.9725C2.30327 5.9725 1.24215 4.91154 1.24215 3.60736C1.24215 2.30311 2.30319 1.24207 3.60745 1.24207C4.9117 1.24207 5.97274 2.30311 5.97274 3.60736C5.97274 4.91154 4.91162 5.9725 3.60745 5.9725Z" transform="translate(3.39233 3.39258)" fill="#57AB27"/>
<path d="M0.910909 -4.54888e-08C0.671588 -4.54888e-08 0.436491 0.0968876 0.267476 0.266648C0.0976329 0.43558 -1.97118e-07 0.67076 -1.97118e-07 0.910908C-1.97118e-07 1.15031 0.0977157 1.38541 0.267476 1.55517C0.436408 1.7241 0.671588 1.82182 0.910909 1.82182C1.15106 1.82182 1.38541 1.7241 1.55517 1.55517C1.72493 1.38541 1.82182 1.15023 1.82182 0.910908C1.82182 0.67076 1.72493 0.43558 1.55517 0.266648C1.38624 0.0968876 1.15106 -4.54888e-08 0.910909 -4.54888e-08Z" transform="translate(9.8479 2.33887)" fill="#57AB27"/>
</svg>

<svg width="14" height="14" fill="none" xmlns="http://www.w3.org/2000/svg"><path d="M10.136 0H3.863A3.868 3.868 0 0 0 0 3.863v6.273A3.868 3.868 0 0 0 3.863 14h6.273A3.868 3.868 0 0 0 14 10.136V3.864A3.868 3.868 0 0 0 10.136 0zm2.622 10.136a2.624 2.624 0 0 1-2.621 2.622H3.862a2.624 2.624 0 0 1-2.62-2.621V3.862a2.624 2.624 0 0 1 2.62-2.62h6.273a2.624 2.624 0 0 1 2.622 2.62v6.273z" fill="#57AB27"/><path d="M7 3.393A3.612 3.612 0 0 0 3.392 7 3.611 3.611 0 0 0 7 10.607 3.611 3.611 0 0 0 10.607 7 3.612 3.612 0 0 0 7 3.393zm0 5.972A2.368 2.368 0 0 1 4.634 7 2.368 2.368 0 0 1 7 4.635 2.368 2.368 0 0 1 9.365 7 2.368 2.368 0 0 1 7 9.365zm3.759-7.026a.914.914 0 0 0-.911.91c0 .24.098.475.267.645a.918.918 0 0 0 .644.267.92.92 0 0 0 .644-.267.915.915 0 0 0 0-1.289.915.915 0 0 0-.644-.266z" fill="#57AB27"/></svg>
